symbolic/64x64/apps/protonmail-desktop.svg

<svg xmlns="http://www.w3.org/2000/svg" width="64" height="64" version="1">
 <path style="opacity:0.2" d="M 60,33 A 28,28 0 0 1 32,61 28,28 0 0 1 4,33 28,28 0 0 1 32,5 28,28 0 0 1 60,33 Z"/>
 <path style="fill:#4f4f4f" d="M 60,32 A 28,28 0 0 1 32,60 28,28 0 0 1 4,32 28,28 0 0 1 32,4 28,28 0 0 1 60,32 Z"/>
 <path style="opacity:0.2" d="m 32,16 c -0.81555,0 -1.632987,0.03704 -2.152344,0.111328 -6.268773,0.896255 -9.973084,3.930476 -10.714844,8.775391 -0.08194,0.535299 -0.105981,1.48522 -0.11914,5.126953 L 19,34.339844 l 0.179688,0.287109 c 0.448979,0.71258 1.071975,1.213361 4.023437,3.246094 4.934366,3.398411 6.961861,4.637932 8.210937,5.015625 0.197127,0.0596 0.467952,0.109595 0.603516,0.111328 0.828983,0.01108 3.251959,-1.338259 6.921875,-3.855469 4.576648,-3.139153 5.425084,-3.790346 5.871094,-4.501953 L 45,34.339844 45,30.771484 C 45,26.118172 44.967342,25.294127 44.748047,24.296875 44.357065,22.518444 43.64586,21.112513 42.511719,19.888672 40.691311,17.924283 37.844934,16.639543 34.150391,16.111328 33.631015,16.037079 32.815548,16 32,16 Z m 0,6 c 3.999996,0 5.935833,2.357737 6.837891,5.246094 C 38.9967,27.754611 39,27.775322 39,29.84375 c 0,1.146847 -0.01817,2.10578 -0.04102,2.128906 -0.02285,0.02311 -3.140811,0.03215 -6.958984,0.02344 -3.818171,0.0086 -6.93612,-4.28e-4 -6.958984,-0.02344 C 25.018186,31.949526 25,30.990597 25,29.84375 c 0,-2.068428 0.0033,-2.089139 0.162109,-2.597656 C 26.064177,24.357737 28.000004,22 32,22 Z m 13,15.339844 -0.189453,0.302734 c -0.44601,0.711607 -1.294446,1.3628 -5.871094,4.501953 -3.669916,2.51721 -6.092892,3.866549 -6.921875,3.855469 -0.135564,-0.0017 -0.406389,-0.05173 -0.603516,-0.111328 -1.249076,-0.377693 -3.276571,-1.617214 -8.210937,-5.015625 -2.951462,-2.032733 -3.574459,-2.533514 -4.023437,-3.246094 l -0.175782,-0.28125 c 6e-5,0.142365 3.35e-4,0.745847 0,0.804688 -2e-4,0.01787 -0.0039,0.0328 -0.0039,0.05078 l 0,6.601562 c 0,0.06169 0.01525,0.113457 0.01758,0.173828 l 0.01367,3.88086 0.195312,0.359375 c 0.150177,0.2739 0.271305,0.398133 0.515626,0.539062 l 0.318359,0.185547 5.179687,0.03125 c 2.848697,0.0168 8.182397,0.02903 11.851563,0.02734 l 6.671875,-0.0039 0.322266,-0.134766 c 0.414537,-0.174654 0.536351,-0.279306 0.728515,-0.632812 l 0.154297,-0.289063 0.0059,-3.871094 C 44.979987,44.977328 45,44.896948 45,44.802734 l 0,-6.601562 c 0,-0.01249 -0.0038,-0.02272 -0.0039,-0.03516 L 45,37.339844 Z"/>
 <path style="fill:#ffffff" d="M 32 15 C 31.18445 15 30.367013 15.037042 29.847656 15.111328 C 23.578883 16.007583 19.874572 19.041804 19.132812 23.886719 C 19.050873 24.422018 19.026831 25.371939 19.013672 29.013672 L 19 33.339844 L 19.179688 33.626953 C 19.628667 34.339533 20.251663 34.840314 23.203125 36.873047 C 28.137491 40.271458 30.164986 41.510979 31.414062 41.888672 C 31.611189 41.948272 31.882014 41.998267 32.017578 42 C 32.846561 42.01108 35.269537 40.661741 38.939453 38.144531 C 43.516101 35.005378 44.364537 34.354185 44.810547 33.642578 L 45 33.339844 L 45 29.771484 C 45 25.118172 44.967342 24.294127 44.748047 23.296875 C 44.357065 21.518444 43.64586 20.112513 42.511719 18.888672 C 40.691311 16.924283 37.844934 15.639543 34.150391 15.111328 C 33.631015 15.037079 32.815548 15 32 15 z M 32 21 C 35.999996 21 37.935833 23.357737 38.837891 26.246094 C 38.9967 26.754611 39 26.775322 39 28.84375 C 39 29.990597 38.981834 30.94953 38.958984 30.972656 C 38.936134 30.995766 35.818173 31.004804 32 30.996094 C 28.181829 31.004694 25.06388 30.995666 25.041016 30.972656 C 25.018186 30.949526 25 29.990597 25 28.84375 C 25 26.775322 25.003282 26.754611 25.162109 26.246094 C 26.064177 23.357737 28.000004 21 32 21 z M 45 36.339844 L 44.810547 36.642578 C 44.364537 37.354185 43.516101 38.005378 38.939453 41.144531 C 35.269537 43.661741 32.846561 45.01108 32.017578 45 C 31.882014 44.998267 31.611189 44.948272 31.414062 44.888672 C 30.164986 44.510979 28.137491 43.271458 23.203125 39.873047 C 20.251663 37.840314 19.628666 37.339533 19.179688 36.626953 L 19.003906 36.345703 C 19.003966 36.488068 19.004241 37.09155 19.003906 37.150391 C 19.003706 37.168264 19 37.183192 19 37.201172 L 19 43.802734 C 19 43.864421 19.015249 43.916191 19.017578 43.976562 L 19.03125 47.857422 L 19.226562 48.216797 C 19.376739 48.490697 19.497867 48.61493 19.742188 48.755859 L 20.060547 48.941406 L 25.240234 48.972656 C 28.088931 48.989456 33.422631 49.00169 37.091797 49 L 43.763672 48.996094 L 44.085938 48.861328 C 44.500475 48.686674 44.622289 48.582022 44.814453 48.228516 L 44.96875 47.939453 L 44.974609 44.068359 C 44.979987 43.977328 45 43.896948 45 43.802734 L 45 37.201172 C 45 37.188684 44.996191 37.178453 44.996094 37.166016 L 45 36.339844 z"/>
 <path style="fill:#ffffff;opacity:0.1" d="M 32 4 A 28 28 0 0 0 4 32 A 28 28 0 0 0 4.0214844 32.585938 A 28 28 0 0 1 32 5 A 28 28 0 0 1 59.978516 32.414062 A 28 28 0 0 0 60 32 A 28 28 0 0 0 32 4 z"/>
</svg>

<svg xmlns="http://www.w3.org/2000/svg" width="64" height="64" version="1"><path style="opacity:.2" d="M60 33a28 28 0 0 1-28 28A28 28 0 0 1 4 33 28 28 0 0 1 32 5a28 28 0 0 1 28 28z"/><path style="fill:#4f4f4f" d="M60 32a28 28 0 0 1-28 28A28 28 0 0 1 4 32 28 28 0 0 1 32 4a28 28 0 0 1 28 28z"/><path style="opacity:.2" d="M32 16c-.816 0-1.633.037-2.152.111-6.27.897-9.973 3.93-10.715 8.776-.082.535-.106 1.485-.12 5.127L19 34.34l.18.287c.449.713 1.072 1.213 4.023 3.246 4.934 3.398 6.962 4.638 8.211 5.016.197.06.468.11.604.111.829.011 3.252-1.338 6.921-3.855 4.577-3.14 5.426-3.79 5.872-4.502L45 34.34V30.77c0-4.653-.033-5.477-.252-6.474-.39-1.779-1.102-3.184-2.236-4.408-1.82-1.965-4.667-3.25-8.362-3.778C33.631 16.037 32.816 16 32 16zm0 6c4 0 5.936 2.358 6.838 5.246.159.509.162.53.162 2.598 0 1.147-.018 2.106-.041 2.129-.023.023-3.14.032-6.959.023-3.818.009-6.936 0-6.959-.023-.023-.023-.041-.982-.041-2.13 0-2.068.003-2.088.162-2.597C26.064 24.358 28 22 32 22zm13 15.34-.19.303c-.445.711-1.294 1.362-5.87 4.502-3.67 2.517-6.093 3.866-6.922 3.855a2.73 2.73 0 0 1-.604-.111c-1.249-.378-3.277-1.618-8.21-5.016-2.952-2.033-3.575-2.533-4.024-3.246l-.176-.281v.804c0 .018-.004.033-.004.051v6.602c0 .061.015.113.018.174l.013 3.88.196.36c.15.274.27.398.515.539l.319.185 5.18.032c2.848.016 8.182.029 11.85.027l6.673-.004.322-.135c.414-.174.536-.279.728-.632l.155-.29.006-3.87c.005-.092.025-.172.025-.266V38.2c0-.012-.004-.023-.004-.035L45 37.34z"/><path style="fill:#fff" d="M32 15c-.816 0-1.633.037-2.152.111-6.27.897-9.973 3.93-10.715 8.776-.082.535-.106 1.485-.12 5.127L19 33.34l.18.287c.449.713 1.072 1.213 4.023 3.246 4.934 3.398 6.962 4.638 8.211 5.016.197.06.468.11.604.111.829.011 3.252-1.338 6.921-3.855 4.577-3.14 5.426-3.79 5.872-4.502L45 33.34V29.77c0-4.653-.033-5.477-.252-6.474-.39-1.779-1.102-3.184-2.236-4.408-1.82-1.965-4.667-3.25-8.362-3.778C33.631 15.037 32.816 15 32 15zm0 6c4 0 5.936 2.358 6.838 5.246.159.509.162.53.162 2.598 0 1.147-.018 2.106-.041 2.129-.023.023-3.14.032-6.959.023-3.818.009-6.936 0-6.959-.023-.023-.023-.041-.982-.041-2.13 0-2.068.003-2.088.162-2.597C26.064 23.358 28 21 32 21zm13 15.34-.19.303c-.445.711-1.294 1.362-5.87 4.502-3.67 2.517-6.093 3.866-6.922 3.855a2.733 2.733 0 0 1-.604-.111c-1.249-.378-3.277-1.618-8.21-5.016-2.952-2.033-3.575-2.533-4.024-3.246l-.176-.281v.804c0 .018-.004.033-.004.051v6.602c0 .061.015.113.018.174l.013 3.88.196.36c.15.274.27.398.515.539l.319.185 5.18.032c2.848.016 8.182.029 11.85.027l6.673-.004.322-.135c.414-.174.536-.279.728-.632l.155-.29.006-3.87c.005-.092.025-.172.025-.266V37.2c0-.012-.004-.023-.004-.035L45 36.34z"/><path style="fill:#fff;opacity:.1" d="M32 4A28 28 0 0 0 4 32a28 28 0 0 0 .021.586A28 28 0 0 1 32 5a28 28 0 0 1 27.979 27.414A28 28 0 0 0 60 32 28 28 0 0 0 32 4z"/></svg>
